swiss/communes/0959.svg

<?xml version="1.0" encoding="UTF-8" standalone="no"?>
<svg
   xmlns:dc="http://purl.org/dc/elements/1.1/"
   xmlns:cc="http://web.resource.org/cc/"
   xmlns:rdf="http://www.w3.org/1999/02/22-rdf-syntax-ns#"
   xmlns:svg="http://www.w3.org/2000/svg"
   xmlns="http://www.w3.org/2000/svg"
   xmlns:xlink="http://www.w3.org/1999/xlink"
   xmlns:sodipodi="http://sodipodi.sourceforge.net/DTD/sodipodi-0.dtd"
   xmlns:inkscape="http://www.inkscape.org/namespaces/inkscape"
   height="763"
   width="603"
   version="1.0"
   id="svg20"
   sodipodi:version="0.32"
   inkscape:version="0.44.1"
   sodipodi:docname="Walterswil-coat of arms.svg"
   sodipodi:docbase="F:\Mis Documentos\Mis imágenes\Encyclopédie\Escudos de Suiza">
  <metadata
     id="metadata31">
    <rdf:RDF>
      <cc:Work
         rdf:about="">
        <dc:format>image/svg+xml</dc:format>
        <dc:type
           rdf:resource="http://purl.org/dc/dcmitype/StillImage" />
        <dc:date>07-AUG-2006</dc:date>
        <dc:creator>
          <cc:Agent>
            <dc:title>Jérôme BLUM (wagner51)</dc:title>
          </cc:Agent>
        </dc:creator>
        <cc:license
           rdf:resource="http://creativecommons.org/licenses/GPL/2.0/" />
        <dc:coverage />
        <dc:description>Gabarit pour le Projet:Blasons de WIkipédia</dc:description>
        <dc:subject>
          <rdf:Bag>
            <rdf:li>blason suisse modèle gabarit projet blasons</rdf:li>
          </rdf:Bag>
        </dc:subject>
        <dc:language>fr</dc:language>
        <dc:title>Gabrit d'un blason suisse</dc:title>
      </cc:Work>
      <cc:License
         rdf:about="http://creativecommons.org/licenses/GPL/2.0/">
        <cc:permits
           rdf:resource="http://web.resource.org/cc/Reproduction" />
        <cc:permits
           rdf:resource="http://web.resource.org/cc/Distribution" />
        <cc:requires
           rdf:resource="http://web.resource.org/cc/Notice" />
        <cc:permits
           rdf:resource="http://web.resource.org/cc/DerivativeWorks" />
        <cc:requires
           rdf:resource="http://web.resource.org/cc/ShareAlike" />
        <cc:requires
           rdf:resource="http://web.resource.org/cc/SourceCode" />
      </cc:License>
    </rdf:RDF>
  </metadata>
  <defs
     id="defs29">
    <linearGradient
       id="linearGradient2893">
      <stop
         style="stop-color:#ffffff;stop-opacity:0.3137255;"
         offset="0"
         id="stop2895" />
      <stop
         id="stop2897"
         offset="0.19"
         style="stop-color:#ffffff;stop-opacity:0.25098041;" />
      <stop
         style="stop-color:#6b6b6b;stop-opacity:0.1254902;"
         offset="0.60000002"
         id="stop2901" />
      <stop
         style="stop-color:#000000;stop-opacity:0.1254902;"
         offset="1"
         id="stop2899" />
    </linearGradient>
    <linearGradient
       id="linearGradient2955">
      <stop
         style="stop-color:white;stop-opacity:0;"
         offset="0"
         id="stop2965" />
      <stop
         style="stop-color:black;stop-opacity:0.64583331;"
         offset="1"
         id="stop2959" />
    </linearGradient>
    <radialGradient
       inkscape:collect="always"
       xlink:href="#linearGradient2893"
       id="radialGradient3236"
       gradientUnits="userSpaceOnUse"
       gradientTransform="matrix(1.215027,1.531577e-24,1.464684e-23,1.266667,-839.1924,-490.4894)"
       cx="858.04236"
       cy="579.93323"
       fx="858.04236"
       fy="579.93323"
       r="300" />
  </defs>
  <sodipodi:namedview
     inkscape:window-height="682"
     inkscape:window-width="1024"
     inkscape:pageshadow="2"
     inkscape:pageopacity="0.0"
     guidetolerance="10.0"
     gridtolerance="10.0"
     objecttolerance="10.0"
     borderopacity="1.0"
     bordercolor="#666666"
     pagecolor="#ffffff"
     id="base"
     inkscape:zoom="0.48301887"
     inkscape:cx="381.47982"
     inkscape:cy="409.5469"
     inkscape:window-x="-4"
     inkscape:window-y="-4"
     inkscape:current-layer="layer2"
     showgrid="true"
     showguides="true"
     inkscape:guide-bbox="true" />
  <desc
     id="desc22">Coat of Arms of Canton of Freiburg (Fribourg)</desc>
  <g
     inkscape:groupmode="layer"
     id="layer1"
     inkscape:label="Fond écu"
     sodipodi:insensitive="true">
    <path
       id="path1899"
       d="M 1.5,1.49998 L 1.5,460.3679 C 1.5,626.6785 135.81456,761.5 301.49999,761.5 C 467.18543,761.5 601.5,626.6785 601.5,460.3679 L 601.5,1.49998 L 1.5,1.49998 z "
       style="fill:white;fill-opacity:1" />
  </g>
  <g
     inkscape:groupmode="layer"
     id="layer2"
     inkscape:label="Meubles"
     sodipodi:insensitive="true">
    <g
       id="g5493"
       transform="matrix(4.101501,0,0,4.101501,-2562.504,-2328.443)">
      <path
         sodipodi:nodetypes="cccccccccccccccccc"
         id="path2810"
         d="M 705.56396,641.23486 C 719.86183,634.05971 710.87484,623.73649 720.51758,608.77637 C 716.66356,609.14598 714.35643,611.06249 712.19971,613.12939 C 719.77377,599.29441 713.29902,593.70437 707.6709,589.55273 C 708.95574,594.56696 711.33926,599.00797 705,608 C 700.94035,611.60319 697.90657,616.0012 698.31787,623.12939 C 697.9119,616.06061 700.9522,611.64281 705,608 C 696.83207,593.10439 709.78983,587.61819 698.44727,579.68213 C 702.77364,587.24401 689.45007,591.3963 693.06728,606.04686 C 696.46735,616.68912 683.05636,628.61454 698.82275,640.34034 C 683.04718,628.55317 696.50001,616.6708 693.05908,606.18848 C 685.44003,600.42757 688.16712,594.66667 689.09424,588.90576 C 679.61534,596.20683 679.7278,603.97577 684.35303,611.96484 C 681.79606,609.35432 679.2391,608.87866 676.68213,608.64697 C 685.39667,622.15757 673.06331,642.67551 695.90576,640.71728 C 705.95604,631.57083 713.35467,621.62891 705,608 C 713.30965,621.63602 706.01436,631.51529 695.90576,640.71728 L 705.56396,641.23486 z "
         style="fill:#e20909;fill-opacity:1;fill-rule:evenodd;stroke:black;stroke-width:1px;stroke-linecap:butt;stroke-linejoin:miter;stroke-opacity:1" />
      <path
         sodipodi:nodetypes="cccccccccccccccccccccc"
         id="path1921"
         d="M 689.61181,640.97118 L 689.61182,659.16455 L 684.09424,653.12939 L 680,658 L 688.44727,669.50635 L 688.44727,700.4585 L 682.3291,694.42334 L 677.6709,698.64697 L 687.07031,714.11816 L 685.38818,736.70605 C 684.99337,747.41908 711.13287,745.90646 709.87061,736.96484 L 709.09424,720.37549 L 717.15332,709.29395 L 712.92969,705.19971 L 708.36426,710.07031 L 707.58789,677.74121 L 716.16455,665.19971 L 711.37695,660.6709 L 706.55273,666.18848 L 705.64697,641.10058 C 701.49188,641.16085 699.41836,640.32902 697.58328,639.39501 C 695.91138,640.41303 692.54139,640.582 689.61181,640.97118 z "
         style="fill:black;fill-opacity:1;fill-rule:evenodd;stroke:black;stroke-width:1px;stroke-linecap:butt;stroke-linejoin:miter;stroke-opacity:1" />
      <path
         sodipodi:nodetypes="ccccccccccccccccccccc"
         id="path3721"
         d="M 731.44091,630.66309 L 731.69971,654.3916 L 726.18213,648.35644 L 722.08789,653.22705 L 730.53516,664.7334 L 730.53516,691.02735 L 724.93457,685.50977 L 720.27637,689.7334 L 729.1582,704.68701 L 727.73486,716.66455 C 727.34005,727.37758 753.47955,725.86496 752.21729,716.92334 L 751.44092,689.98243 L 759.5,678.90089 L 755.27637,674.80665 L 750.71094,679.67725 L 749.1582,655.6294 L 757.73486,643.0879 L 752.94726,638.55909 L 748.12304,644.07667 L 747.47607,630.79249 L 731.44091,630.66309 z "
         style="fill:black;fill-opacity:1;fill-rule:evenodd;stroke:black;stroke-width:1px;stroke-linecap:butt;stroke-linejoin:miter;stroke-opacity:1" />
      <path
         style="fill:#e20909;fill-opacity:1;fill-rule:evenodd;stroke:black;stroke-width:1px;stroke-linecap:butt;stroke-linejoin:miter;stroke-opacity:1"
         d="M 749.38183,632.5 C 764.68526,628.26669 752.10482,615.00163 764.46484,599.26514 C 760.61082,599.63475 756.49217,601.93945 754.33545,604.00635 C 757.25023,592.86885 754.52849,590.52696 750.45361,585.47607 C 751.73845,590.4903 752.05166,593.63737 745.7124,602.6294 C 741.65275,606.23259 740.68928,607.26634 739.80664,612.45361 C 740.69461,607.19636 741.6646,606.27221 745.7124,602.6294 C 741.85135,588.52758 742.07054,585.54469 745.88819,579.7461 C 740.19053,582.57526 732.20958,585.08709 735.20302,602.87596 C 734.85065,609.63638 724.54513,619.87968 740.31152,631.60548 C 724.65109,619.93345 734.77621,609.64036 735.19482,603.01758 C 727.57577,597.25667 729.78528,591.23699 730.7124,585.47608 C 716.95656,591.23373 727.8903,600.47049 722.99512,615.39307 C 718.12356,630.24362 725.24545,632.71378 739.72363,631.98242 C 743.43358,626.32962 754.06707,616.25831 745.7124,602.6294 C 754.02205,616.26542 743.3625,626.40348 739.72363,631.98242 C 739.72363,631.98242 747.28837,633.0791 749.38183,632.5 z "
         id="path3715"
         sodipodi:nodetypes="ccccccccccccscccs" />
      <path
         style="fill:black;fill-opacity:1;fill-rule:evenodd;stroke:black;stroke-width:1px;stroke-linecap:butt;stroke-linejoin:miter;stroke-opacity:1"
         d="M 649.0288,628.0752 L 647.73487,643.78125 L 642.99365,638.78125 L 638.89941,643.65186 L 646.57032,654.12305 L 645.79395,683.00489 L 640.19336,677.22852 L 635.53516,681.45215 L 644.41699,694.07666 L 642.73486,716.66455 C 642.34005,727.37758 668.47955,725.86496 667.21729,716.92334 L 665.71094,674.77979 L 674.2876,662.23829 L 669.5,657.70948 L 664.67578,663.22706 L 665.06396,628.2046 L 649.0288,628.0752 z "
         id="path3719"
         sodipodi:nodetypes="ccccccccccccccccc" />
      <path
         sodipodi:nodetypes="csccccccccccsscccc"
         id="path3717"
         d="M 666.41211,630.33119 C 672.12686,630.68101 676.24597,620.92351 670.97755,608.69545 C 667.26166,600.07086 680.36262,598.11488 667.48389,583.30726 C 668.76873,588.32149 669.08194,591.46856 662.74268,600.46059 C 658.68303,604.06378 657.71956,605.09753 656.83692,610.2848 C 657.72489,605.02755 658.69488,604.1034 662.74268,600.46059 C 658.88163,586.35877 659.10082,583.37588 662.91847,577.57729 C 657.22081,580.40645 649.23986,582.91828 652.2333,600.70715 C 651.88093,607.46757 641.57541,617.71087 657.3418,629.43667 C 641.68137,617.76464 651.80649,607.47155 652.2251,600.84877 C 644.60605,595.08786 646.81556,589.06818 647.74268,583.30727 C 640.19384,587.58715 636.10024,595.71474 644.33287,606.05196 C 640.16009,600.2493 635.98731,600.93555 631.81453,599.57398 C 629.20854,598.72364 638.8955,608.28088 637.82569,613.48305 C 634.67748,628.79186 642.27573,630.54497 656.75391,629.81361 C 660.46386,624.16081 671.09735,614.0895 662.74268,600.46059 C 671.05233,614.09661 660.39278,624.23467 656.75391,629.81361 C 656.75391,629.81361 664.31865,630.91029 666.41211,630.33119 z "
         style="fill:#e20909;fill-opacity:1;fill-rule:evenodd;stroke:black;stroke-width:1px;stroke-linecap:butt;stroke-linejoin:miter;stroke-opacity:1" />
    </g>
  </g>
  <g
     inkscape:groupmode="layer"
     id="layer3"
     inkscape:label="Reflet final"
     style="display:inline"
     sodipodi:insensitive="true">
    <path
       style="fill:url(#radialGradient3236);fill-opacity:1"
       d="M 1.5,1.5 L 1.5,460.3679 C 1.5,626.67854 135.81454,761.5 301.49993,761.5 C 467.1854,761.5 601.5,626.67854 601.5,460.3679 L 601.5,1.5 L 1.5,1.5 z "
       id="path2346" />
  </g>
  <g
     inkscape:groupmode="layer"
     id="layer4"
     inkscape:label="Contour final"
     style="display:inline"
     sodipodi:insensitive="true">
    <path
       style="fill:none;fill-opacity:1;stroke:#000000;stroke-width:3;stroke-miterlimit:4;stroke-dasharray:none;stroke-opacity:1"
       d="M 1.5,1.5 L 1.5,460.36794 C 1.5,626.67854 135.81454,761.5 301.49993,761.5 C 467.1854,761.5 601.5,626.67854 601.5,460.36794 L 601.5,1.5 L 1.5,1.5 z "
       id="path3239" />
  </g>
</svg>

<svg xmlns="http://www.w3.org/2000/svg" xmlns:xlink="http://www.w3.org/1999/xlink" height="763" width="603" version="1.0"><defs><radialGradient xlink:href="#a" id="b" gradientUnits="userSpaceOnUse" gradientTransform="matrix(1.21503 0 0 1.26667 -839.192 -490.49)" cx="858.042" cy="579.933" fx="858.042" fy="579.933" r="300"/><linearGradient id="a"><stop style="stop-color:#fff;stop-opacity:.3137255" offset="0"/><stop offset=".19" style="stop-color:#fff;stop-opacity:.25098041"/><stop style="stop-color:#6b6b6b;stop-opacity:.1254902" offset=".6"/><stop style="stop-color:#000;stop-opacity:.1254902" offset="1"/></linearGradient></defs><path d="M1.5 1.5v458.868c0 166.31 134.315 301.132 300 301.132s300-134.822 300-301.132V1.5H1.5z" style="fill:#fff;fill-opacity:1"/><path d="M705.564 641.235c14.298-7.175 5.31-17.499 14.954-32.459-3.854.37-6.162 2.286-8.318 4.353 7.574-13.835 1.099-19.425-4.53-23.576 1.286 5.014 3.67 9.455-2.67 18.447-4.06 3.603-7.093 8.001-6.682 15.13-.406-7.07 2.634-11.487 6.682-15.13-8.168-14.896 4.79-20.382-6.553-28.318 4.327 7.562-8.997 11.714-5.38 26.365 3.4 10.642-10.01 22.568 5.756 34.293-15.776-11.787-2.323-23.67-5.764-34.152-7.619-5.76-4.892-11.521-3.965-17.282-9.479 7.3-9.366 15.07-4.741 23.059-2.557-2.61-5.114-3.086-7.67-3.318 8.714 13.51-3.62 34.029 19.223 32.07 10.05-9.146 17.449-19.088 9.094-32.717 8.31 13.636 1.014 23.515-9.094 32.717l9.658.518z" style="fill:#e20909;fill-opacity:1;fill-rule:evenodd;stroke:#000;stroke-width:1px;stroke-linecap:butt;stroke-linejoin:miter;stroke-opacity:1" transform="translate(-2562.504 -2328.443) scale(4.1015)"/><path d="M689.612 640.971v18.194l-5.518-6.036L680 658l8.447 11.506v30.952l-6.118-6.035-4.658 4.224 9.4 15.471-1.683 22.588c-.395 10.713 25.745 9.2 24.483.259l-.777-16.59 8.06-11.081-4.224-4.094-4.566 4.87-.776-32.329 8.577-12.541-4.788-4.53-4.824 5.518-.906-25.087c-4.155.06-6.229-.772-8.064-1.706-1.672 1.018-5.042 1.187-7.971 1.576zM731.44 630.663l.26 23.729-5.518-6.036-4.094 4.871 8.447 11.506v26.294l-5.6-5.517-4.659 4.223 8.882 14.954-1.423 11.978c-.395 10.713 25.745 9.2 24.482.258l-.776-26.94L759.5 678.9l-4.224-4.094-4.565 4.87-1.553-24.048 8.577-12.541-4.788-4.529-4.824 5.518-.647-13.285-16.035-.129z" style="fill:#000;fill-opacity:1;fill-rule:evenodd;stroke:#000;stroke-width:1px;stroke-linecap:butt;stroke-linejoin:miter;stroke-opacity:1" transform="translate(-2562.504 -2328.443) scale(4.1015)"/><path style="fill:#e20909;fill-opacity:1;fill-rule:evenodd;stroke:#000;stroke-width:1px;stroke-linecap:butt;stroke-linejoin:miter;stroke-opacity:1" d="M749.382 632.5c15.303-4.233 2.723-17.498 15.083-33.235-3.854.37-7.973 2.674-10.13 4.741 2.915-11.137.193-13.479-3.881-18.53 1.284 5.014 1.598 8.161-4.742 17.153-4.06 3.604-5.023 4.637-5.905 9.825.888-5.258 1.858-6.182 5.905-9.825-3.86-14.101-3.641-17.084.176-22.883-5.697 2.83-13.678 5.341-10.685 23.13-.352 6.76-10.658 17.004 5.109 28.73-15.66-11.673-5.536-21.966-5.117-28.588-7.62-5.761-5.41-11.781-4.483-17.542-13.755 5.758-2.822 14.994-7.717 29.917-4.871 14.85 2.25 17.32 16.729 16.59 3.71-5.653 14.343-15.725 5.988-29.354 8.31 13.636-2.35 23.774-5.988 29.353 0 0 7.564 1.097 9.658.518z" transform="translate(-2562.504 -2328.443) scale(4.1015)"/><path style="fill:#000;fill-opacity:1;fill-rule:evenodd;stroke:#000;stroke-width:1px;stroke-linecap:butt;stroke-linejoin:miter;stroke-opacity:1" d="m649.029 628.075-1.294 15.706-4.741-5-4.095 4.87 7.671 10.472-.776 28.882-5.6-5.776-4.659 4.223 8.882 12.625-1.682 22.588c-.395 10.713 25.745 9.2 24.482.258l-1.506-42.143 8.577-12.542-4.788-4.529-4.824 5.518.388-35.022-16.035-.13z" transform="translate(-2562.504 -2328.443) scale(4.1015)"/><path d="M666.412 630.331c5.715.35 9.834-9.407 4.566-21.636-3.716-8.624 9.385-10.58-3.494-25.388 1.285 5.014 1.598 8.162-4.741 17.154-4.06 3.603-5.023 4.637-5.906 9.824.888-5.257 1.858-6.182 5.906-9.824-3.861-14.102-3.642-17.085.175-22.884-5.697 2.83-13.678 5.341-10.685 23.13-.352 6.76-10.658 17.004 5.109 28.73-15.66-11.672-5.536-21.965-5.117-28.588-7.619-5.761-5.41-11.78-4.482-17.542-7.55 4.28-11.643 12.408-3.41 22.745-4.173-5.803-8.346-5.116-12.518-6.478-2.606-.85 7.08 8.707 6.01 13.91-3.148 15.308 4.45 17.061 18.929 16.33 3.71-5.653 14.343-15.724 5.989-29.353 8.31 13.636-2.35 23.774-5.99 29.353 0 0 7.566 1.096 9.66.517z" style="fill:#e20909;fill-opacity:1;fill-rule:evenodd;stroke:#000;stroke-width:1px;stroke-linecap:butt;stroke-linejoin:miter;stroke-opacity:1" transform="translate(-2562.504 -2328.443) scale(4.1015)"/><g style="display:inline"><path style="fill:url(#b);fill-opacity:1" d="M1.5 1.5v458.868c0 166.31 134.315 301.132 300 301.132s300-134.821 300-301.132V1.5H1.5z"/></g><g style="display:inline"><path style="fill:none;fill-opacity:1;stroke:#000;stroke-width:3;stroke-miterlimit:4;stroke-dasharray:none;stroke-opacity:1" d="M1.5 1.5v458.868c0 166.31 134.315 301.132 300 301.132s300-134.821 300-301.132V1.5H1.5z"/></g></svg>
